!!!!SEGMENT: pl-wumfc--r313--001-003_paderewski-ignacy-jan--vocal-pieces-op-7-szumi-w-gaju-brzezina.krn
!!!cenid: 18xx:3388
!!!COM: Paderewski, Ignacy Jan
!!!COM-rismID: pe30029943
!!!CDT: 1860/11/18-1941/06/29
!!!CNT: Polish
!!!GTL: [Vocal pieces op. 7]
!!!OTL: Szumi w gaju brzezina
!!!OMV: 003
!!!PDT:
!!!AGN:
!!!YEC: Copyright 2022 Narodowy Instytut Fryderyka Chopina (https://polishscores.org)
!!!YEM: License CC-BY-4.0 (https://creativecommons.org/licenses/by/4.0)
!!!SMS-siglum: PL-Wumfc
!!!SMS-shelfmark: R313
!!!SMS-shelfwork: 001-003 G
!!!SMS-variant:
!!!SMS-altvar:
!!!NIFC-rismSourceID: 1001159534
!!!NIFC-rismChildID: 1001159537
!!!NIFC-islandoraID: pl-wumfc:730
!!!URL-pdf-islandora: https://repozytorium.nifc.pl/islandora/object/pl-wumfc%3A730/datastream/PDF/view
!!!URL-scan: https://polish.musicsources.pl/pl/lokalizacje/galeria/rekopisy/4734 @EN{Scan on Polish Music Sources Website} @PL{Skany w portalu Dziedzictwo Muzyki Polskiej w otwartym dostępie}
!!!IIIF:
!!!ONB-nifc:
!!!OMD: Allego non troppo.
!!!OMD-mod: Allego non troppo
!!!AIN: 1 piano 1 vox
!!!key: F
**kern	**kern	**fing	**dynam	**kern	**text	**text	**dynam
*part2	*part2	*	*	*part1	*	*	*
*staff3	*staff2	*	*	*staff1	*	*	*
*I"[Piano]	*I"[Piano]	*	*	*I"[Voice]	*	*	*
*I'	*I'	*	*	*I'	*	*	*
*mI"Pianoforte	*mI"Pianoforte	*	*	*mI"Voce	*	*	*
*mI'pf	*mI'pf	*	*	*mI'V	*	*	*
*Ipiano	*Ipiano	*	*	*Ivox	*	*	*
*ICklav	*ICklav	*	*	*ICvox	*	*	*
*IGacmp	*IGacmp	*	*	*IGsolo	*	*	*
*clefF4	*clefG2	*	*	*clefG2	*	*	*
*k[b-]	*k[b-]	*	*	*k[b-]	*	*	*
*F:	*F:	*	*	*F:	*	*	*
*M4/4	*M4/4	*	*	*M4/4	*	*	*
=1	=1	=1	=1	=1	=1	=1	=1
(4FF\	8A'>/L	.	pp	1r	.	.	.
.	8f'>/	.	.	.	.	.	.
4C\	8G'>/	.	.	.	.	.	.
.	8e'>/J	.	.	.	.	.	.
!	!LO:TUP:b:global:problem=klamra łukowa	!	!	!	!	!	!
4F\	12A/L	2	.	.	.	.	.
.	12d/	4	.	.	.	.	.
.	12A/J	2	.	.	.	.	.
!	!LO:TUP:b	!	!	!	!	!	!
4C\)	12G/L	1	.	.	.	.	.
.	12e/	5	.	.	.	.	.
.	12G/J	1	.	.	.	.	.
=2	=2	=2	=2	=2	=2	=2	=2
(4FF\	8A'/L	2	.	1r	.	.	.
.	8f'/	5	.	.	.	.	.
4C\	8G'/	.	.	.	.	.	.
.	8e'/J	.	.	.	.	.	.
!	!LO:TUP:b	!	!	!	!	!	!
4F\	12A/L	.	.	.	.	.	.
.	12d/	.	.	.	.	.	.
.	12A/J	.	.	.	.	.	.
!	!LO:TUP:b	!	!	!	!	!	!
4C\)	12G/L	.	.	.	.	.	.
.	12e/	.	.	.	.	.	.
.	12G/J	.	.	.	.	.	.
=3	=3	=3	=3	=3	=3	=3	=3
*	*	*below	*	*	*	*	*
(4FF\	12A/L	2	.	4r	.	.	.
.	12f/	5	.	.	.	.	.
.	12A/J	2	.	.	.	.	.
4C\	12G/L	1	.	8g/	Szu-	Bir-	.
.	12e/	5	.	.	.	.	.
.	.	.	.	8b-/	-mi	-ke	.
.	12G/J	1	.	.	.	.	.
4F\	12A/L	2	.	4a/	w_ga-	rau-	.
.	12d/	4	.	.	.	.	.
.	12A/J	2	.	.	.	.	.
4C\)	12G/L	1	.	8g/	-ju	-schet	.
.	12e/	5	.	.	.	.	.
.	.	.	.	8b-/	brze-	im	.
.	12G/J	1	.	.	.	.	.
=4	=4	=4	=4	=4	=4	=4	=4
!	!LO:TUP:b	!	!	!	!	!	!
(4FF\	12A/L	.	.	(8a/L	-zi-	Hai-	.
.	12f/	.	.	.	.	.	.
.	.	.	.	8cc/J)	.	.	.
.	12A/J	.	.	.	.	.	.
!	!LO:TUP:b	!	!	!	!	!	!
4C\	12G/L	.	.	2cc\	-na	-ne,	.
.	12e/	.	.	.	.	.	.
.	12G/J	.	.	.	.	.	.
!	!LO:TUP:b	!	!	!	!	!	!
4F\	12A/L	.	.	.	.	.	.
.	12d/	.	.	.	.	.	.
.	12A/J	.	.	.	.	.	.
!	!LO:TUP:b	!	!	!	!	!	!
4C\)	12G/L	.	.	4r	.	.	.
.	12e/	.	.	.	.	.	.
.	12G/J	.	.	.	.	.	.
!!LO:LB:g=original
=5	=5	=5	=5	=5	=5	=5	=5
!	!LO:TUP:b	!	!	!	!	!	!
(4FF\	12A/L	.	.	4r	.	.	.
.	12f/	.	.	.	.	.	.
.	12A/J	.	.	.	.	.	.
!	!LO:TUP:b	!	!	!	!	!	!
4C\	12G/L	.	.	8g/	Bo	Sie	.
.	12e/	.	.	.	.	.	.
.	.	.	.	8b-/	i-	kann's	.
.	12G/J	.	.	.	.	.	.
!	!LO:TUP:b	!	!	!	!	!	!
4F\	12A/L	.	.	4a/	-na-	nim-	.
.	12d/	.	.	.	.	.	.
.	12A/J	.	.	.	.	.	.
!	!LO:TUP:b	!	!	!	!	!LO:MO:mod=-mer	!
4C\)	12G/L	.	.	8g/	-czej	-(m)er	.
.	12e/	.	.	.	.	.	.
.	.	.	.	8b-/	nie	ver-	.
.	12G/J	.	.	.	.	.	.
=6	=6	=6	=6	=6	=6	=6	=6
!	!LO:TUP:b	!	!	!	!	!	!
2FF\	12A/L	.	.	(8a\L	mo-	-mei-	.
.	12c/	.	.	.	.	.	.
.	.	.	.	8cc\J)	.	.	.
.	12f/J	.	.	.	.	.	.
!	!LO:TUP:b	!	!	!	!	!	!
.	12c/L	.	.	2cc\	-że	-den,	.
.	12f/	.	.	.	.	.	.
.	12a/J	.	.	.	.	.	.
!	!LO:TUP:b	!	!	!	!	!	!
2F\	12f/L	.	.	.	.	.	.
.	12a/	.	.	.	.	.	.
.	12cc/J	.	.	.	.	.	.
!	!LO:TUP:a	!	!	!	!	!	!
.	12a\L	.	.	4r	.	.	.
.	12cc\	.	.	.	.	.	.
.	12ff\J)	.	.	.	.	.	.
=7	=7	=7	=7	=7	=7	=7	=7
4ryy	N(16ff\LL	.	.	4bn\	Wiatr	Sturm-	.
.	16bn\	.	.	.	.	.	.
.	16a\	.	.	.	.	.	.
.	16f\JJ	.	.	.	.	.	.
!LO:TUP:a	!	!	!	!	!	!	!
12d\L	4ryy	.	.	4dd\	ga-	-wind	.
12A\	.	.	.	.	.	.	.
12D\JN)	.	.	.	.	.	.	.
4ryy	N(16ee\LL	.	.	4cc\	-łąz-	zau-	.
.	16cc\	.	.	.	.	.	.
.	16a\	.	.	.	.	.	.
.	16e\JJ	.	.	.	.	.	.
!LO:TUP:a	!	!	!	!	!	!	!
12c\L	4ryy	.	.	8b\	-ki	-set	.
12E\	.	.	.	.	.	.	.
.	.	.	.	8a/	jej	die	.
12AA\JN)	.	.	.	.	.	.	.
=8	=8	=8	=8	=8	=8	=8	=8
4ryy	N(>16bn/LL	.	.	(2dd\	zgi-	klei-	.
.	16a/	.	.	.	.	.	.
.	16f/	.	.	.	.	.	.
.	16Bn/JJ	.	.	.	.	.	.
!LO:TUP:a	!	!	!	!	!	!	!
12F\L	4ryy	.	.	.	.	.	.
12AA\	.	.	.	.	.	.	.
12DD\JN)	.	.	.	.	.	.	.
4ryy	N(16cc\LL	.	.	4cc\)	-na	-ne,	.
.	16a\	.	.	.	.	.	.
.	16e\	.	.	.	.	.	.
.	16c\JJ	.	.	.	.	.	.
!LO:TUP:a	!	!	!	!	!	!	!
12A\L	4ryy	.	.	4r	.	.	.
12E\	.	.	.	.	.	.	.
12AA\JN)	.	.	.	.	.	.	.
!!LO:PB:g=original
=9	=9	=9	=9	=9	=9	=9	=9
4ryy	N(>16a/LL	.	.	4cc\	Mu-	Und	.
.	16f/	.	.	.	.	.	.
.	16e-X/	.	.	.	.	.	.
.	16A/JJ	.	.	.	.	.	.
!LO:TUP:a	!	!	!	!	!	!	!
12G\L	4ryy	.	.	4cc\	-si	da	.
12C\	.	.	.	.	.	.	.
12FF\JN)	.	.	.	.	.	.	.
4ryy	N(>16g/LL	.	.	4b-\	szu-	rauscht	.
.	16f/	.	.	.	.	.	.
.	16d/	.	.	.	.	.	.
.	16G/JJ	.	.	.	.	.	.
!LO:TUP:a	!	!	!	!	!	!	!
12B-\L	4ryy	.	.	8a/	-mieć	sie	.
12F\	.	.	.	.	.	.	.
.	.	.	.	8g/	nie-	ihr	.
12BB-\JN)	.	.	.	.	.	.	.
=10	=10	=10	=10	=10	=10	=10	=10
4ryy	N(>16en/LL	.	.	1a	-bo-	Lei-	.
.	16d/	.	.	.	.	.	.
.	16B-/	.	.	.	.	.	.
.	16E</JJ	.	.	.	.	.	.
!LO:TUP:a	!	!	!	!	!	!	!
12D\L	4ryy	.	.	.	.	.	.
12GG\	.	.	.	.	.	.	.
12CC\JN)	.	.	.	.	.	.	.
!	!LO:TUP:b	!	!	!	!	!	!
4C\	(12E</L	.	.	.	.	.	.
.	12B-</	.	.	.	.	.	.
.	12c</J	.	.	.	.	.	.
!	!LO:TUP:b	!	!	!	!	!	!
4r	12e/L	.	.	.	.	.	.
.	12b-/	.	.	.	.	.	.
.	12cc/J)	.	.	.	.	.	.
=11	=11	=11	=11	=11	=11	=11	=11
!	!LO:TUP:b	!	!	!	!	!	!
(4F\	12a/L	.	.	4f/	-że.	-den.	.
.	12ff/	.	.	.	.	.	.
.	12a/J	.	.	.	.	.	.
!	!LO:TUP:b	!	!	!	!	!	!
4c\	12g/L	.	.	4r	.	.	.
.	12ee/	.	.	.	.	.	.
.	12g/J	.	.	.	.	.	.
!	!LO:TUP:b	!	!	!	!	!	!
4f\	12a/L	.	.	2r	.	.	.
.	12dd/	.	.	.	.	.	.
.	12a/J	.	.	.	.	.	.
!	!LO:TUP:b	!	!	!	!	!	!
4c\)	12g/L	.	.	.	.	.	.
.	12ee/	.	.	.	.	.	.
.	12g/J	.	.	.	.	.	.
=12	=12	=12	=12	=12	=12	=12	=12
!	!LO:TUP:b	!	!	!	!	!	!
(4F\	12a/L	.	.	1r	.	.	.
.	12ff/	.	.	.	.	.	.
.	12a/J	.	.	.	.	.	.
!	!LO:TUP:b	!	!	!	!	!	!
4c\	12g/L	.	.	.	.	.	.
.	12ee/	.	.	.	.	.	.
.	12g/J	.	.	.	.	.	.
!	!LO:TUP:b	!	!	!	!	!	!
4f\	12a/L	.	.	.	.	.	.
.	12dd/	.	.	.	.	.	.
.	12a/J	.	.	.	.	.	.
!	!LO:TUP:b	!	!	!	!	!	!
4c\)	12g/L	.	.	.	.	.	.
.	12ee/	.	.	.	.	.	.
.	12g/J	.	.	.	.	.	.
!!LO:LB:g=original
=13	=13	=13	=13	=13	=13	=13	=13
!	!LO:TUP:b	!	!	!	!	!	!
4F\	12a/L	.	.	1r	.	.	.
.	12ff/	.	.	.	.	.	.
.	12a/J	.	.	.	.	.	.
!	!LO:TUP:b	!	!	!	!	!	!
2c\	12g/L	.	.	.	.	.	.
.	12cc/	.	.	.	.	.	.
.	12g/J	.	>	.	.	.	.
!	!LO:TUP:b	!	!	!	!	!	!
.	12a/L	.	.	.	.	.	.
.	12ff/	.	.	.	.	.	.
.	12a/J	.	.	.	.	.	.
!	!LO:TUP:b	!	!	!	!	!	!
[4c\	12g/L	.	.	.	.	.	.
.	12cc/	.	.	.	.	.	.
.	12g/J	.	.	.	.	.	.
=14	=14	=14	=14	=14	=14	=14	=14
!	!LO:TUP:b	!	!	!	!	!	!
4c\]	12a/L	.	.	1r	.	.	.
.	12ff/	.	.	.	.	.	.
.	12a/J	.	.	.	.	.	.
!	!LO:TUP:b	!	!	!	!	!	!
2c\	12g/L	.	.	.	.	.	.
.	12cc/	.	.	.	.	.	.
.	12g/J	.	.	.	.	.	.
!	!LO:TUP:b	!	!	!	!	!	!
.	12a/L	.	.	.	.	.	.
.	12ff/	.	]	.	.	.	.
.	12a/J	.	.	.	.	.	.
!	!LO:TUP:b	!	!	!	!	!	!
4c\	12g/L	.	.	.	.	.	.
.	12cc/	.	.	.	.	.	.
.	12g/J	.	.	.	.	.	.
=15	=15	=15	=15	=15	=15	=15	=15
!!!OMD: Piu lento
4f 4c 4A-X\	4ff 4cc 4a-X^>/	.	.	4cc\	Wzdy-	Mägd-	.
4FF 4FFF\	4f 4c 4A-y</	.	.	4cc\	-cha	-lein	.
4e-X 4B- 4G\	4ee-X 4b- 4g/	.	.	4ee-X\	w_ga-	seuf-	.
4FF 4FFF\	4e-X 4B-< 4G</	.	.	8b-\L	-ju	-zet	.
.	.	.	.	8ee-\J	dziew-	im	.
=16	=16	=16	=16	=16	=16	=16	=16
4d-y 4A-X 4F\	4dd-X 4a-X 4f/	.	.	2dd-X\	-czy-	Hai-	.
4FF 4FFF\	4d-X 4A-y< 4F</	.	.	.	.	.	.
4c 4A- 4F\	4cc 4a- 4f/	.	.	2cc\	-na	-ne,	.
4FF 4FFF\	4c< 4A-< 4F</	.	.	.	.	.	.
!!LO:LB:g=original
=17	=17	=17	=17	=17	=17	=17	=17
4c 4F 4D-X\	4cc 4f 4d-X/	.	.	4f/	Mi-	Thrä-	.
4FF 4FFF\	4c 4F< 4D-y</	.	.	4f/	-mo	-nen	.
4G 4F 4D-\	4g 4f 4d-/	.	.	4cc\	wo-	flies-	.
4FF 4FFF\	4G< 4F< 4D-</	.	.	8b-\	-li	-sen	.
.	.	.	.	8g/	łzy	vor	.
=18	=18	=18	=18	=18	=18	=18	=18
4A-X 4F 4C\	4a-X 4f 4c/	.	.	2a-X/	cie-	We-	.
4FF 4FFF\	4A-y< 4F< 4C</	.	.	.	.	.	.
4c 4A- 4F\	4cc 4a- 4f/	.	.	8a-/	-ką	-he,	.
.	.	.	.	8r	.	.	.
4FF 4FFF\	4c< 4A-< 4F</	.	.	4r	.	.	.
=19	=19	=19	=19	=19	=19	=19	=19
4e-X 4B- 4G\	4ee-X 4b- 4g/	.	.	4ee-X\	Bo	Lieb-	.
4EE-X 4EEE-X\	4e-X 4B-< 4G</	.	.	4ee-\	mi-	-ster	.
4d-X 4A-X 4F\	4dd-X 4a-X 4f/	.	.	4dd-X\	-łe-	liess	.
4EE- 4EEE-\	4d-y< 4A-y< 4F</	.	.	8a-X\	-go	sie	.
.	.	.	.	8dd-\	wspo-	al-	.
=20	=20	=20	=20	=20	=20	=20	=20
4c 4A-X 4E-X\	4cc 4a-X 4e-X/	.	.	2cc\	-mi-	-lei-	.
4AA-X 4AAA-X\	4c< 4A-y< 4E-y</	.	.	.	.	.	.
4B- 4G 4D-X\	4b- 4g 4d-X/	.	.	2b-\	-na	-ne,	.
4BB- 4BBB-\	4B-< 4G< 4D-y</	.	.	.	.	.	.
!!LO:LB:g=original
=21	=21	=21	=21	=21	=21	=21	=21
!LO:MO:mod=1r	!LO:MO:mod=1r	!	!	!	!	!	!
1ryy	1ryy	.	.	4a-X/	co	Zag	.
.	.	.	.	4g/	jest	weit	.
.	.	.	.	4f/	od	weg	.
.	.	.	.	4a-/	niej	aus	.
=22	=22	=22	=22	=22	=22	=22	=22
!LO:MO:mod=1r	!LO:MO:mod=1r	!	!	!	!	!	!
1ryy	1ryy	.	.	4g/	da-	der	.
.	.	.	.	2cc\	-le-	Nä-	.
.	.	.	.	8b-\L	.	.	.
.	.	.	.	8a-X\J	.	.	.
=23	=23	=23	=23	=23	=23	=23	=23
(>4CC\	8E<'/L	.	.	2g/	-ko.	-he.	.
.	8c<'/J	.	.	.	.	.	.
4GG\	8D<'/L	.	.	.	.	.	.
.	8B<'/J	.	.	.	.	.	.
4C\	12E</L	.	.	2r	.	.	.
.	12A</	.	.	.	.	.	.
.	12E</J	.	.	.	.	.	.
4GG\)	12D</L	.	.	.	.	.	.
.	12B</	.	.	.	.	.	.
.	12D</J	.	.	.	.	.	.
=24	=24	=24	=24	=24	=24	=24	=24
(>4CC\	8E</L	.	.	1r	.	.	.
.	8c</J	.	.	.	.	.	.
4GG\	8D</L	.	.	.	.	.	.
.	8Bn</J	.	.	.	.	.	.
4C\	12E</L	.	.	.	.	.	.
.	12A</	.	.	.	.	.	.
.	12E</J	.	.	.	.	.	.
4GG\)	12D</L	.	.	.	.	.	.
.	12B</	.	.	.	.	.	.
.	12D</J	.	.	.	.	.	.
!!LO:PB:g=original
=25	=25	=25	=25	=25	=25	=25	=25
2CC\	12E</L	.	.	1r	.	.	.
.	12c</	.	.	.	.	.	.
.	12E</J	.	.	.	.	.	.
.	12F</L	.	.	.	.	.	.
.	12d</	.	.	.	.	.	.
.	12F</J	.	.	.	.	.	.
2C\	12G</L	.	.	.	.	.	.
.	12e</	.	.	.	.	.	.
.	12G</J	.	.	.	.	.	.
.	12F</L	.	.	.	.	.	.
.	12d</	.	.	.	.	.	.
.	12F</J	.	.	.	.	.	.
=26	=26	=26	=26	=26	=26	=26	=26
2CC\	12E</L	.	.	1r	.	.	.
!	!LO:SIC:v:o=12c< 12F</	!	!	!	!	!	!
.	12c<	.	.	.	.	.	.
.	12E</J	.	.	.	.	.	.
.	12F</L	.	.	.	.	.	.
.	12d</	.	.	.	.	.	.
.	12F</J	.	.	.	.	.	.
2C\	12F#<X/L	.	.	.	.	.	.
.	12d#<X/	.	.	.	.	.	.
.	12F#</J	.	.	.	.	.	.
.	12G</L	.	.	.	.	.	.
.	12e</	.	.	.	.	.	.
.	12G</J	.	.	.	.	.	.
=27	=27	=27	=27	=27	=27	=27	=27
(4FF\	12A/L	.	.	4r	.	.	.
.	12f/	.	.	.	.	.	.
.	12A/J	.	.	.	.	.	.
!	!	!	!	!	!	!LO:MO:mod=Kommt	!
4C\	12G/L	.	.	8g/	Gdy	Kom(m)t	.
.	12e/	.	.	.	.	.	.
.	.	.	.	8b-/	na-	der	.
.	12G/J	.	.	.	.	.	.
4F\	12A/L	.	.	4a/	-dej-	Win-	.
.	12d/	.	.	.	.	.	.
.	12A/J	.	.	.	.	.	.
4C\)	12G/L	.	.	8g/	-dzie	-ter	.
.	12e/	.	.	.	.	.	.
!	!	!	!	!	!LO:MO:mod=już	!	!
.	.	.	.	8b-/	juž	ge-	.
.	12G/J	.	.	.	.	.	.
=28	=28	=28	=28	=28	=28	=28	=28
(4FF\	12A/L	.	.	(8a\L	zi-	-gan-	.
.	12f/	.	.	.	.	.	.
.	.	.	.	8cc\J)	.	.	.
.	12A/J	.	.	.	.	.	.
4C\	12G/L	.	.	2cc\	-ma	-gen,	.
.	12e/	.	.	.	.	.	.
.	12G/J	.	.	.	.	.	.
4F\	12A/L	.	.	.	.	.	.
.	12d/	.	.	.	.	.	.
.	12A/J	.	.	.	.	.	.
4C\)	12G/L	.	.	4r	.	.	.
.	12e/	.	.	.	.	.	.
.	12G/J	.	.	.	.	.	.
!!LO:LB:g=original
=29	=29	=29	=29	=29	=29	=29	=29
(4FF\	12A/L	.	.	4r	.	.	.
.	12f/	.	.	.	.	.	.
.	12A/J	.	.	.	.	.	.
4C\	12G/L	.	.	8g/	Brzo-	sind	.
.	12e/	.	.	.	.	.	.
.	.	.	.	8b-/	-za	die	.
.	12G/J	.	.	.	.	.	.
4F\	12A/L	.	.	4a/	liś-	Blät-	.
.	12d/	.	.	.	.	.	.
.	12A/J	.	.	.	.	.	.
4C\)	12G/L	.	.	8g/	-ci	-ter	.
.	12e/	.	.	.	.	.	.
.	.	.	.	8b-/	po-	dar-	.
.	12G/J	.	.	.	.	.	.
=30	=30	=30	=30	=30	=30	=30	=30
2FF\	12A/L	.	.	(8a\L	-zbę-	-nie-	.
.	12c/	.	.	.	.	.	.
.	.	.	.	8cc\J)	.	.	.
.	12f/J	.	.	.	.	.	.
.	12c/L	.	.	2cc\	-dzie	-der,	.
.	12f/	.	.	.	.	.	.
.	12a/J	.	.	.	.	.	.
2F\	12f/L	.	.	.	.	.	.
.	12a/	.	.	.	.	.	.
.	12cc/J	.	.	.	.	.	.
.	12a/L	.	.	4r	.	.	.
.	12cc/	.	.	.	.	.	.
.	12ff/J	.	.	.	.	.	.
=31	=31	=31	=31	=31	=31	=31	=31
4D\	N(>16ff/LL	.	.	4bn\	Wszy-	Sturm	.
.	16bn/	.	.	.	.	.	.
.	16a/	.	.	.	.	.	.
.	16f/JJ	.	.	.	.	.	.
!LO:TUP:a	!	!	!	!	!	!	!
12d\L	4ryy	.	.	4dd\	-stkie	kann	.
12A\	.	.	.	.	.	.	.
12D\JN)	.	.	.	.	.	.	.
4A\	N(>16ee/LL	.	.	4cc\	wi-	sich	.
.	16cc/	.	.	.	.	.	.
.	16a/	.	.	.	.	.	.
.	16e/JJ	.	.	.	.	.	.
!LO:TUP:a	!	!	!	!	!	!	!
12c\L	4ryy	.	.	8b\	-chry	nicht	.
12E\	.	.	.	.	.	.	.
.	.	.	.	8a/	wy-	ver-	.
12AA\JN)	.	.	.	.	.	.	.
=32	=32	=32	=32	=32	=32	=32	=32
4D\	N(>16bn/LL	.	.	2dd\	-trzy-	-fan-	.
.	16a/	.	.	.	.	.	.
.	16f/	.	.	.	.	.	.
.	16Bn/JJ	.	.	.	.	.	.
!LO:TUP:a	!	!	!	!	!	!	!
12F\L	4ryy	.	.	.	.	.	.
12AA\	.	.	.	.	.	.	.
12DD\JN)	.	.	.	.	.	.	.
4AA\	N(>16cc/LL	.	.	2cc\	-ma	-gen,	.
.	16a/	.	.	.	.	.	.
.	16e/	.	.	.	.	.	.
.	16c/JJ	.	.	.	.	.	.
!LO:TUP:a	!	!	!	!	!	!	!
12A\L	4ryy	.	.	.	.	.	.
12E\	.	.	.	.	.	.	.
12AA\JN)	.	.	.	.	.	.	.
!!LO:LB:g=original
=33	=33	=33	=33	=33	=33	=33	=33
4F\	N(>16a/LL	.	.	4cc\	I	Bir-	.
.	16f/	.	.	.	.	.	.
.	16e-X/	.	.	.	.	.	.
.	16A/JJ	.	.	.	.	.	.
!LO:TUP:a	!	!	!	!	!LO:MO:mod=już	!	!
12G\L	4ryy	.	.	4cc\	juž	-ke	.
12C\	.	.	.	.	.	.	.
12FF\JN)	.	.	.	.	.	.	.
4BB-\	N(>16g/LL	.	.	4b-X\	szu-	rau-	.
.	16f/	.	.	.	.	.	.
.	16d/	.	.	.	.	.	.
.	16G/JJ	.	.	.	.	.	.
!LO:TUP:a	!	!	!	!	!	!	!
12B-\L	4ryy	.	.	8a/	-mieć	-schet	.
12F\	.	.	.	.	.	.	.
.	.	.	.	8g/	nie	nicht	.
12BB-\JN)	.	.	.	.	.	.	.
=34	=34	=34	=34	=34	=34	=34	=34
4ryy	N(>16en/LL	.	.	1a	bę-	wie-	.
.	16d/	.	.	.	.	.	.
.	16B-/	.	.	.	.	.	.
.	16E</JJ	.	.	.	.	.	.
!LO:TUP:a	!	!	!	!	!	!	!
12D\L	4ryy	.	.	.	.	.	.
12GG\	.	.	.	.	.	.	.
12CC\JN)	.	.	.	.	.	.	.
!	!LO:TUP:b	!	!	!	!	!	!
4C\	12e/L	.	.	.	.	.	.
.	12c/	.	.	.	.	.	.
.	12B-/J	.	.	.	.	.	.
8C\L	4E</	.	.	.	.	.	.
8CC\J	.	.	.	.	.	.	.
=35	=35	=35	=35	=35	=35	=35	=35
(4C 4FF\	(8A/L	.	.	4f/	-dzie.	-der.	.
.	8f/J)	.	>	.	.	.	.
4C\	(>8G/L	.	.	4r	.	.	.
.	8e/J)	.	.	.	.	.	.
4F\	(8A/L	.	.	2r	.	.	.
.	8d/J)	.	.	.	.	.	.
4C\)	(>8G/L	.	.	.	.	.	.
.	8e/J)	.	.	.	.	.	.
=36	=36	=36	=36	=36	=36	=36	=36
(4FF\	(8A/L	.	]	1r	.	.	.
.	8f/J)	.	.	.	.	.	.
4C\	(8G/L	.	.	.	.	.	.
.	8e/J)	.	.	.	.	.	.
4F\	(8A/L	.	.	.	.	.	.
.	8d/J)	.	.	.	.	.	.
4C\)	(8G/L	.	.	.	.	.	.
.	8e/J)	.	.	.	.	.	.
!!LO:LB:g=original
=37	=37	=37	=37	=37	=37	=37	=37
*	*	*above	*	*	*	*	*
4FF\	(>8A/L	1	.	1r	.	.	.
.	8f/	4	.	.	.	.	.
2F\	8c/	2	.	.	.	.	.
.	8a'/J	5	.	.	.	.	.
.	8f/L	.	.	.	.	.	.
.	8cc/	.	.	.	.	.	.
4F\	8a/	.	.	.	.	.	.
.	8ff/J)	.	.	.	.	.	.
=38	=38	=38	=38	=38	=38	=38	=38
4f 4c\	(>8cc/L	.	.	1r	.	.	.
.	8ff/	.	.	.	.	.	.
4r	8f/	.	.	.	.	.	.
.	8ff/J	.	.	.	.	.	.
2r	8cc/L	.	.	.	.	.	.
.	8ff/	.	.	.	.	.	.
.	8f/	.	.	.	.	.	.
.	8ff/J)	.	.	.	.	.	.
=39	=39	=39	=39	=39	=39	=39	=39
!	!	!	!	!	!	!LO:MO:mod=Kommt	!LO:DY:a:t=m.p.
4f 4c 4A-X\	4ff 4cc 4a-X/	.	.	4cc\	Gdy	Kom(m)t	mp
4FF 4FFF\	4f 4c< 4A-y</	.	.	4ff\	na-	der	.
4e-X 4B- 4G\	4ee-X 4b- 4g/	.	.	4ee-X\	-dej-	Win-	.
4FF 4FFF\	4e-X 4B-< 4G</	.	.	8b-\	-dzie	-ter	.
!	!	!	!	!	!LO:MO:mod=już	!	!
.	.	.	.	8ee-\	juž	ge-	.
=40	=40	=40	=40	=40	=40	=40	=40
4d-X 4A-X 4F\	4dd-X 4a-X 4f/	.	.	2dd-X\	zi-	-gan-	.
4FF 4FFF\	4d-X 4A-y< 4F</	.	.	.	.	.	.
4c 4A- 4F\	4cc 4a- 4f/	.	.	2cc\	-ma	-gen,	.
4FF 4FFF\	4c< 4A-< 4F</	.	.	.	.	.	.
!!LO:PB:g=original
=41	=41	=41	=41	=41	=41	=41	=41
4c 4F 4D-X\	4cc 4f 4d-X/	.	.	4f/	Dziew-	Hint	.
4FF 4FFF\	4c< 4F< 4D-y</	.	.	4f/	-czę	das	.
4G 4F 4D-\	4g 4f 4d-/	.	.	4cc\	wspo-	Mägd-	.
4FF 4FFF\	4G< 4F< 4D-</	.	.	8b-\	-mni	-lein	.
.	.	.	.	8g/	mi-	gar-	.
=42	=42	=42	=42	=42	=42	=42	=42
4A-X 4F 4C\	4a-X 4f 4c/	.	.	2.a-X/	-łe-	-trü-	.
4FF 4FFF\	4A-y< 4F< 4C</	.	.	.	.	.	.
4c 4A- 4F\	4cc 4a- 4f/	.	.	.	.	.	.
4FF 4FFF\	4c< 4A-< 4F</	.	.	4cc\	-go	-be	.
=43	=43	=43	=43	=43	=43	=43	=43
4e-X 4B- 4G\	4ee-X 4b- 4g\	.	.	4ee-X\	I	nach	.
4EE-X 4EEE-X\	4e-X 4B-< 4G</	.	.	4ee-\	smut-	dem	.
4d-X 4A-X 4F\	4dd-X 4a-X 4f/	.	.	4dd-X\	-ne-	Lieb-	.
4EE- 4EEE-\	4d-y< 4A-y< 4F</	.	.	8a-X/	-mi	-sten	.
.	.	.	.	8dd-\	o-	ver-	.
=44	=44	=44	=44	=44	=44	=44	=44
4c 4A-X 4E-X\	4cc 4a-X 4e-X/	.	.	2.cc\	-czy-	-lan-	.
4AA-X 4AAA-X\	4c< 4A-y< 4E-y</	.	.	.	.	.	.
4c 4A- 4E-\	4cc 4a- 4e-/	.	.	.	.	.	.
4AA- 4AAA-\	4c< 4A-< 4D-y<;/	.	.	8cc\	-ma	-gen	.
.	.	.	.	8r;	.	.	.
!!LO:LB:g=original
=45	=45	=45	=45	=45	=45	=45	=45
!!!OMD: Vivo.
!!!OMD-mod: Vivo
*	*	*	*^	*	*	*	*
!	!LO:TX:a:B:t=Vivo.:mod=	!	!LO:DY:a	!LO:DY:b=2	!	!	!	!LO:DY:b
!	!LO:TUP:b	!	!	!LO:MO:null:mod=.	!	!	!	!
4CC\	12B-/L	.	pp	pp	4r	.	.	p
.	12c/	.	.	.	.	.	.	.
.	12B-/J	.	.	.	.	.	.	.
!	!LO:TUP:b	!	!	!	!	!	!	!
2C\	12c#X/L	.	.	.	8g/	Za-	Und	.
.	12B-/	.	.	.	.	.	.	.
.	.	.	.	.	8b-/	-cznie	sucht	.
.	12c#/J	.	.	.	.	.	.	.
!	!LO:TUP:b	!	!	!	!	!	!	!
.	12d/L	.	.	.	4a/	szu-	an-	.
.	12B-/	.	.	.	.	.	.	.
.	12d/J	.	.	.	.	.	.	.
!	!LO:TUP:b	!	!	!	!	!	!	!
4C\	12e/L	.	.	.	8g/	-kać	-de-	.
.	12B-/	.	.	.	.	.	.	.
.	.	.	.	.	8b-/	dru-	-re	.
.	12e/J	.	.	.	.	.	.	.
*	*	*	*v	*v	*	*	*	*
=46	=46	=46	=46	=46	=46	=46	=46
!	!LO:TUP:b	!	!	!	!	!	!
4CC\	12A/L	.	.	(8a/L	-gie-	Lie-	.
.	12c/	.	.	.	.	.	.
.	.	.	.	8cc/J)	.	.	.
.	12f/J	.	.	.	.	.	.
!	!LO:TUP:b	!	!	!	!	!	!
2C\	12c/L	.	.	2cc\	-go	-be	.
.	12f/	.	.	.	.	.	.
.	12a/J	.	.	.	.	.	.
!	!LO:TUP:b	!	!	!	!	!	!
.	12f/L	.	.	.	.	.	.
.	12a/	.	.	.	.	.	.
.	12cc/J	.	.	.	.	.	.
!	!LO:TUP:b	!	!	!	!	!	!
4C\	12a/L	.	.	4r	.	.	.
.	12cc/	.	.	.	.	.	.
.	12ff/J	.	.	.	.	.	.
=47	=47	=47	=47	=47	=47	=47	=47
!	!LO:TUP:b	!	!	!	!	!	!
4C\	12b-/L	.	.	4r	.	.	.
.	12cc/	.	.	.	.	.	.
.	12b-/J	.	<	.	.	.	.
!	!LO:TUP:b	!	!	!	!	!	!
2c\	12cc#X/L	.	.	8g/	Za-	und	.
.	12b-/	.	.	.	.	.	.
.	.	.	.	8b-/	-cznie	sucht	.
.	12cc#/J	.	.	.	.	.	.
!	!LO:TUP:b	!	!	!	!	!	!
.	12b-/L	.	.	4a/	szu-	an-	.
.	12dd/	.	.	.	.	.	.
.	12b-/J	.	.	.	.	.	.
!	!LO:TUP:b	!	!	!	!	!	!
4c\	12dd#X/L	.	.	8g/	-kać	-de-	.
.	12b-/	.	.	.	.	.	.
.	.	.	.	8b-/	dru-	-re	.
.	12dd#/J	.	.	.	.	.	.
=48	=48	=48	=48	=48	=48	=48	=48
!	!LO:TUP:b	!	!	!	!	!	!
4C\	12b-/L	.	.	(8a/L	-gie-	Lie-	.
.	12ee/	.	.	.	.	.	.
.	.	.	.	8cc/J)	.	.	.
.	12b-/J	.	[	.	.	.	.
!	!	!	!LO:MO:mod=!null:null	!	!	!	!
!	!LO:TUP:b	!	!LO:HP:t=cres	!	!	!	!
2c\	12g/L	.	<	[2.cc\	.	.	.
.	12cc/	.	.	.	.	.	.
.	12g/J	.	.	.	.	.	.
!	!LO:TUP:b	!	!	!	!	!	!
.	12b-/L	.	.	.	.	.	.
.	12ee/	.	.	.	.	.	.
.	12b-/J	.	.	.	.	.	.
!	!LO:TUP:b	!	!	!	!	!	!
4c\	12g/L	.	.	.	.	.	.
.	12cc/	.	.	.	.	.	.
.	12g/J	.	.	.	.	.	.
!!LO:LB:g=original
=49	=49	=49	=49	=49	=49	=49	=49
!	!LO:TUP:b	!	!	!	!	!	!
(4F\	12a/L	.	f	4cc\]	-go.	-be.	.
.	12ff/	.	.	.	.	.	.
.	12a/J	.	.	.	.	.	.
!	!LO:TUP:b	!	!	!	!	!	!
4c\	12g/L	.	.	4r	.	.	.
!	!LO:TX:a:i:t=(d. 15/9. 85 r.):mod=	!	!	!	!	!	!
.	12ee/	.	.	.	.	.	.
.	12g/J	.	.	.	.	.	.
!	!LO:TUP:b	!	!	!	!	!	!
4f\	12a/L	.	.	2r	.	.	.
.	12dd/	.	.	.	.	.	.
.	12a/J	.	.	.	.	.	.
!	!LO:TUP:b	!	!	!	!	!	!
4c\)	12g/L	.	.	.	.	.	.
.	12ee/	.	.	.	.	.	.
.	12g/J	.	.	.	.	.	.
=50	=50	=50	=50	=50	=50	=50	=50
!	!LO:TUP:b	!	!	!	!	!	!
(4F\	12a/L	.	.	1r	.	.	.
.	12ff/	.	.	.	.	.	.
.	12a/J	.	.	.	.	.	.
!	!LO:TUP:b	!	!	!	!	!	!
4c\	12g/L	.	.	.	.	.	.
.	12ee/	.	.	.	.	.	.
.	12g/J	.	.	.	.	.	.
!	!LO:TUP:b	!	!	!	!	!	!
4f\	12a/L	.	.	.	.	.	.
.	12dd/	.	.	.	.	.	.
.	12a/J	.	.	.	.	.	.
!	!LO:TUP:b	!	!	!	!	!	!
4c\)	12g/L	.	.	.	.	.	.
.	12ee/	.	.	.	.	.	.
.	12g/J	.	.	.	.	.	.
=51	=51	=51	=51	=51	=51	=51	=51
!	!LO:TUP:b	!	!	!	!	!	!
(4F\	12a/L	.	.	1r	.	.	.
.	12ff/	.	.	.	.	.	.
.	12a/J	.	.	.	.	.	.
4B-\	8dd^>/L	.	.	.	.	.	.
.	8f/J	.	.	.	.	.	.
4A\	8cc^>/L	.	.	.	.	.	.
.	8f/J	.	.	.	.	.	.
4G\	8b-^>/L	.	.	.	.	.	.
.	8f/J	.	.	.	.	.	.
=52	=52	=52	=52	=52	=52	=52	=52
4F\	8a^>/L	.	.	1r	.	.	.
.	8c/J	.	.	.	.	.	.
4G\	8b-^>/L	.	.	.	.	.	.
.	8c/J	.	.	.	.	.	.
4A\	8cc^>/L	.	.	.	.	.	.
.	8c/J	.	.	.	.	.	.
4G\)	8b-^>/L	.	.	.	.	.	.
.	8c/J	.	.	.	.	.	.
!!LO:LB:g=original
=53	=53	=53	=53	=53	=53	=53	=53
4F\	4a 4c/	.	.	1r	.	.	.
4E\	4g 4A/	.	.	.	.	.	.
4D\	4f 4B-/	.	.	.	.	.	.
4BB-\	4B- 4F</	.	.	.	.	.	.
=54	=54	=54	=54	=54	=54	=54	=54
2FF\	2c 2A</	.	.	1r;	.	.	.
2FF 2FFF\	2c< 2A< 2C<;/	.	.	.	.	.	.
==	==	==	==	==	==	==	==
*-	*-	*-	*-	*-	*-	*-	*-
!!!system-decoration: <s1>{(s2,s3)}
!!!RDF**kern: > = above
!!!RDF**kern: < = below
!!!RDF**kern: N = linked
!!!RDF**dynam: p = "p."
!!!RDF**dynam: pp = "pp."
!!!filter-modern: sic -sq | shed -e "s/:rj/:RJ/L" | shed -k -e "s/:TUP:/:tup:/L" | shed -k -e "s/([^a-gA-Gn#X-])[<>]/$1/g" | shed -e "s/LO:DY:(a|b|rj)/LO:dy:$1/L" | shed -e "s/-//B" | autostem -r | modori -m | humtr -p
!!!ENC: Mateusz Solarz
!!!END: 2021-12-09
!!!EED: Andrzej Kubiczek
!!!EEV: 2021-12-17
!!!ENC-modern: Andrzej Borzym
!!!END-modern: 2022-08-30
